X:0288
T:The Merry Girls of York.
T:Danced by Aldridge.
M:6/8
L:1/8
Q:3/8=120
I: :: ::
Z:Jack Campin * www.campin.me.uk * 2009
K:D
d|AFG  A2d  | AFG A2d |ege dfd  |ecA A2d|
  AFG  A2d  | AFG A>ag|fed ABc  |d3  D2:|
a|afd  ab=c'|=c'3 b2b |bge bc'd'|d'3 c'3|
  ad'a faf  | gbg eae |fed ABc  |d3  D2:|
<end>
<start>
